src/assets/images/arrows/desc.svg

<svg xmlns="http://www.w3.org/2000/svg" viewBox="0 0 13 12">
  <path d="M12 1H8c-.6 0-1 .4-1 1s.4 1 1 1h4c.6 0 1-.4 1-1s-.4-1-1-1zm-2 4H8c-.6 0-1 .4-1 1s.4 1 1 1h2c.6 0 1-.4 1-1s-.4-1-1-1zM8 9c-.6 0-1 .4-1 1s.4 1 1 1 1-.4 1-1-.4-1-1-1zM4.5 0h-1c-.3 0-.5.2-.5.4v7.8c0 .2-.3.3-.5.2l-1-.8c-.1-.1-.1-.2-.3-.2-.1 0-.2 0-.4.2l-.5.6c-.1.1-.2.3-.2.4 0 .1 0 .2.1.3l3.9 3c.1.1.2.1.4.1.1 0 .3 0 .3-.1.1-.1.2-.2.2-.3V.4c0-.2-.3-.4-.5-.4z" fill-rule="evenodd" clip-rule="evenodd" fill="#aaadb4"/>
</svg>

<?xml version="1.0" encoding="utf-8"?>
<!-- Generator: Adobe Illustrator 21.0.0, SVG Export Plug-In . SVG Version: 6.00 Build 0)  -->
<svg version="1.1" id="Forma_1_копия_3_1_" xmlns="http://www.w3.org/2000/svg" xmlns:xlink="http://www.w3.org/1999/xlink"
	 x="0px" y="0px" viewBox="0 0 13 12" style="enable-background:new 0 0 13 12;" xml:space="preserve">
<style type="text/css">
	.st0{fill-rule:evenodd;clip-rule:evenodd;fill:#AAADB4;}
</style>
<g id="Forma_1_копия_3">
	<g>
		<path class="st0" d="M12,1H8C7.4,1,7,1.4,7,2s0.4,1,1,1h4c0.6,0,1-0.4,1-1S12.6,1,12,1z M10,5H8C7.4,5,7,5.4,7,6s0.4,1,1,1h2
			c0.6,0,1-0.4,1-1S10.6,5,10,5z M8,9c-0.6,0-1,0.4-1,1s0.4,1,1,1s1-0.4,1-1S8.6,9,8,9z M4.5,0h-1C3.2,0,3,0.2,3,0.4v7.8
			c0,0.2-0.3,0.3-0.5,0.2l-1-0.8C1.4,7.5,1.4,7.4,1.2,7.4c-0.1,0-0.2,0-0.4,0.2L0.3,8.2C0.2,8.3,0.1,8.5,0.1,8.6
			c0,0.1,0,0.2,0.1,0.3l3.9,3C4.2,12,4.3,12,4.5,12c0.1,0,0.3,0,0.3-0.1C4.9,11.8,5,11.7,5,11.6V0.4C5,0.2,4.7,0,4.5,0z"/>
	</g>
</g>
</svg>
